Obsidian/actions/24s/im-jabber.svg

<svg height="24" viewBox="0 0 24 24" width="24" xmlns="http://www.w3.org/2000/svg"><path d="m8 1c-2.4853 0-4.5 2.2083406-4.5 4.9316406-.009 1.4767 1.1829687 2.766875 1.7304688 4.1718754.24401.62617.6933593 1.896484.6933593 1.896484h4.1523439s.449349-1.270384.693359-1.896484c.54749-1.4050004 1.706569-2.7115754 1.730469-4.1718754 0-2.7233-2.0147-4.9316406-4.5-4.9316406zm-2 12v2h4v-2z" fill="#bebebe" transform="translate(4 4)"/></svg>

<svg xmlns="http://www.w3.org/2000/svg" width="24" height="24" viewBox="0 0 24 24">
 <defs>
  <style id="current-color-scheme" type="text/css">
   .ColorScheme-Text { color:#bebebe; } .ColorScheme-Highlight { color:#4285f4; }
  </style>
 </defs>
 <path style="fill:currentColor" class="ColorScheme-Text" d="M 8 1 C 5.5147 1 3.5 3.2083406 3.5 5.9316406 C 3.491 7.4083406 4.6829687 8.6985156 5.2304688 10.103516 C 5.4744788 10.729686 5.9238281 12 5.9238281 12 L 10.076172 12 C 10.076172 12 10.525521 10.729616 10.769531 10.103516 C 11.317021 8.6985156 12.4761 7.3919406 12.5 5.9316406 C 12.5 3.2083406 10.4853 1 8 1 z M 6 13 L 6 15 L 10 15 L 10 13 L 6 13 z" transform="translate(4 4)"/>
</svg>
